!!!OTL: Graf und Nonne (Die Nonne)
!!!OTL-incipit:Ich stand auf hohem Berge,
!!!ARE: Europa, Mitteleuropa, Deutschland (BRD), Nordrhein - Westfalen, Siegen
!!!YOR: 8, S. 35
!!    1840 aufgezeichnet
!!!SCT: Q0155E
!!!TXL: @@DE
!!!YEM: Copyright 1995, estate of Helmut Schaffrath.
**kern	**text
*ICvox	*
*M3/4	*
*k[]	*
*C:	*
{4cc	Ich
=1	=1
4cc	stand
4g	auf
8eeL	ho-
8ffJ	-hem
=2	=2
4ee	Ber-
4cc}	-ge,
{4gg	schaut
=3	=3
4aa	hin
4gg	in's
8ffL	tie-
8ggJ	-fe
=4	=4
4ee	Thal,
4r}	.
{8ccL	da
8ccJ	sah
=5	=5
4aa	ich
4aa	ein
8aaL	Schiff-
8aaJ	-lein
=6	=6
(8aaL	schwe-
8ggJ)	.
4gg}	-ben,
{8ggL	da
8ggJ	sah
=7	=7
(8aaL	ich
8ggJ)	.
(8ffL	ein
8eeJ)	.
8ggL	Schiff-
8eeJ	-lein
=8	=8
4dd	schwe-
4dd}	-ben,
{4gg	da-
=9	=9
4aa	-rin
4gg	drei
8ffL	Gra-
8ggJ	-fen
=10	=10
4ee	warn.
4r}	.
==	==
!!!AGN: Ballade, Standesunterschied, Werbung, Liebe
!! Grundton in der zweigestrichenen Oktave.
!!!ONB: ESAC (Essen Associative Code) Database: BALLADE
!!!AMT: simple triple
!!!AIN: vox
!!!EED: Helmut Schaffrath
!!!EEV: 1.0
!!@@COMMENT:"Mündlich aus der Gegend um Siegen, durch Schutʒ 1840 (DVA - E681)"
!!@@END:
!!!source: Deutsche Volkslieder mit ihren Melodien. Herausgegeben vom Deutschen Volksliedarchiv. Achter Teil. Freiburg/Breisgau 1988.
!!!page: 35
!!!ENC: Anna Maria Matuszewska
!!!EEV: 2025/03/10
*-	*-
